flaticon/dialogue/envelope-10.svg

<svg xmlns="http://www.w3.org/2000/svg" width="32" height="32" viewBox="0 0 24 24">
    <path d="M 13.015625 0.398438 C 12.445312 -0.132812 11.554688 -0.132812 10.984375 0.398438 L 0 10.625 L 0 24 L 24 24 L 24 10.625 Z M 8.019531 17.292969 L 0.800781 22.792969 L 0.800781 11.605469 L 8.019531 17.105469 C 8.011719 17.136719 8 17.164062 8 17.199219 C 8 17.230469 8.011719 17.261719 8.019531 17.292969 Z M 8.933594 17.597656 L 15.066406 17.597656 L 22.414062 23.199219 L 1.585938 23.199219 Z M 15.859375 17.199219 L 23.199219 11.605469 L 23.199219 22.792969 Z M 11.527344 0.984375 C 11.792969 0.738281 12.207031 0.738281 12.472656 0.984375 L 22.984375 10.773438 C 22.972656 10.78125 22.957031 10.785156 22.945312 10.792969 L 15.066406 16.796875 L 8.933594 16.796875 L 1.054688 10.792969 C 1.042969 10.785156 1.027344 10.78125 1.015625 10.773438 Z M 11.527344 0.984375"/>
</svg>

<svg xmlns="http://www.w3.org/2000/svg" width="32" height="32" viewBox="0 0 24 24">
    <path d="M13.016.398a1.494 1.494 0 0 0-2.032 0L0 10.625V24h24V10.625zM8.02 17.293l-7.22 5.5V11.605l7.22 5.5c-.008.032-.02.06-.02.094 0 .031.012.063.02.094zm.914.305h6.132l7.348 5.601H1.586zm6.925-.399l7.34-5.594v11.188zM11.527.984a.697.697 0 0 1 .946 0l10.511 9.79c-.011.007-.027.011-.039.019l-7.879 6.004H8.934l-7.88-6.004c-.011-.008-.027-.012-.038-.02zm0 0"/>
</svg>
